SVG_Azure_All/Network Interface.svg

<?xml version="1.0" encoding="UTF-8" standalone="no"?>
<!-- Generated by Microsoft Visio, SVG Export Network Interface.svg Page-1 -->

<svg
   xmlns:dc="http://purl.org/dc/elements/1.1/"
   xmlns:cc="http://creativecommons.org/ns#"
   xmlns:rdf="http://www.w3.org/1999/02/22-rdf-syntax-ns#"
   xmlns:svg="http://www.w3.org/2000/svg"
   xmlns="http://www.w3.org/2000/svg"
   xmlns:sodipodi="http://sodipodi.sourceforge.net/DTD/sodipodi-0.dtd"
   xmlns:inkscape="http://www.inkscape.org/namespaces/inkscape"
   width="0.78741431in"
   height="0.70861137in"
   viewBox="0 0 56.693739 51.020003"
   xml:space="preserve"
   class="st7"
   version="1.1"
   id="svg74"
   sodipodi:docname="Network Interface.svg"
   style="font-size:12px;overflow:visible;color-interpolation-filters:sRGB;fill:none;fill-rule:evenodd;stroke-linecap:square;stroke-miterlimit:3"
   inkscape:version="0.92.5 (2060ec1f9f, 2020-04-08)"><metadata
   id="metadata78"><rdf:RDF><cc:Work
       rdf:about=""><dc:format>image/svg+xml</dc:format><dc:type
         rdf:resource="http://purl.org/dc/dcmitype/StillImage" /></cc:Work></rdf:RDF></metadata><sodipodi:namedview
   pagecolor="#ffffff"
   bordercolor="#666666"
   borderopacity="1"
   objecttolerance="10"
   gridtolerance="10"
   guidetolerance="10"
   inkscape:pageopacity="0"
   inkscape:pageshadow="2"
   inkscape:window-width="640"
   inkscape:window-height="480"
   id="namedview76"
   showgrid="false"
   inkscape:zoom="1.4869072"
   inkscape:cx="37.795355"
   inkscape:cy="34.006413"
   inkscape:window-x="0"
   inkscape:window-y="0"
   inkscape:window-maximized="0"
   inkscape:current-layer="svg74" />
	<style
   type="text/css"
   id="style2">
	<![CDATA[
		.st1 {fill:#ffca00;stroke:none;stroke-linecap:butt;stroke-width:34}
		.st2 {fill:url(#grad0-8);stroke:none;stroke-linecap:butt;stroke-width:34}
		.st3 {fill:#b4ec36;stroke:none;stroke-linecap:butt;stroke-width:34}
		.st4 {fill:#365615;stroke:none;stroke-linecap:butt;stroke-width:34}
		.st5 {fill:#f2f2f2;stroke:none;stroke-linecap:butt;stroke-width:34}
		.st6 {fill:#3b3b3b;stroke:none;stroke-linecap:butt;stroke-width:34}
		.st7 {fill:none;fill-rule:evenodd;font-size:12px;overflow:visible;stroke-linecap:square;stroke-miterlimit:3}
	]]>
	</style>

	<defs
   id="Patterns_And_Gradients">
		<linearGradient
   id="grad0-8"
   x1="-1.801602e-06"
   y1="64.509763"
   x2="48.387062"
   y2="64.509763"
   gradientTransform="scale(0.94839404,1.054414)"
   gradientUnits="userSpaceOnUse">
			<stop
   offset="0"
   stop-color="#5e9641"
   stop-opacity="1"
   id="stop4" />
			<stop
   offset="0.34"
   stop-color="#6baa42"
   stop-opacity="1"
   id="stop6" />
			<stop
   offset="0.67"
   stop-color="#73b743"
   stop-opacity="1"
   id="stop8" />
			<stop
   offset="1"
   stop-color="#76bb43"
   stop-opacity="1"
   id="stop10" />
		</linearGradient>
	</defs>
	<g
   id="g72"
   transform="translate(-34.000074,-34.0043)">
		<title
   id="title14">Page-1</title>
		<g
   id="group2877-1"
   transform="translate(34,-34.0157)">
			<title
   id="title16">Network Interface</title>
			<g
   id="group2878-2">
				<title
   id="title18">Sheet.2878</title>
				<g
   id="shape2879-3"
   transform="translate(51.3238,-3.26551)">
					<title
   id="title20">Sheet.2879</title>
					<path
   d="m 0,76.08 h 4.24 a 1.13386,1.15654 0 0 1 1.13,1.15 V 89.14 A 1.13386,1.15654 0 0 1 4.24,90.3 H 0 Z m 0,20.71 h 4.24 a 1.13386,1.15654 0 0 1 1.13,1.16 v 19.93 a 1.13386,1.15654 0 0 1 -1.13,1.16 H 0 Z"
   class="st1"
   id="path22"
   inkscape:connector-curvature="0"
   style="fill:#ffca00;stroke:none;stroke-width:34;stroke-linecap:butt" />
				</g>
				<g
   id="shape2880-5"
   transform="translate(5.43585)">
					<title
   id="title25">Sheet.2880</title>
					<path
   d="m 0,116.69 a 2.30112,2.34714 -180 0 0 2.3,2.35 h 41.29 a 2.30112,2.34714 -180 0 0 2.3,-2.35 V 70.36 a 2.30112,2.34714 -180 0 0 -2.3,-2.34 H 2.3 A 2.30112,2.34714 -180 0 0 0,70.36 Z"
   class="st2"
   id="path27"
   inkscape:connector-curvature="0"
   style="fill:url(#grad0-8);stroke:none;stroke-width:34;stroke-linecap:butt" />
				</g>
				<g
   id="shape2881-9"
   transform="translate(15.0069,-12.2457)">
					<title
   id="title30">Sheet.2881</title>
					<path
   d="M 3,119.04 H 0.63 a 0.666975,0.680315 0 0 1 -0.633627,-0.71433 L 0,89.92 A 0.633627,0.646299 0 0 1 0.633627,89.239685 L 7.07,89.24 A 0.633627,0.646299 0 0 1 7.703627,89.920315 0.666975,0.680315 0 0 1 7.07,90.634646 L 1.27,90.64 v 26.97 H 3 A 0.666975,0.680315 0 0 1 3.633627,118.32433 0.700324,0.714331 0 0 1 3,119.03866 Z"
   class="st3"
   id="path32"
   inkscape:connector-curvature="0"
   style="fill:#b4ec36;stroke:none;stroke-width:34;stroke-linecap:butt" />
				</g>
				<g
   id="shape2882-11"
   transform="translate(11.9389,-8.77606)">
					<title
   id="title35">Sheet.2882</title>
					<path
   d="M 6.4,119.04 H 1.07 A 0.666975,0.680315 0 0 1 0.436373,118.32567 L 0,83.19 A 0.666975,0.680315 0 0 1 0.200093,82.679764 0.53358,0.544252 0 0 1 0.633627,82.47567 L 10.14,82.47 v 1.4 H 1.3 l 0.4,33.74 h 4.7 z m 20.01,-3.13 h -5.3 a 0.633627,0.646299 0 0 1 -0.466883,-0.23811 0.600278,0.612283 0 0 1 -0.200093,-0.47622 L 20.44,98.56 a 0.633627,0.646299 0 0 1 0.633627,-0.680315 L 24.11,97.88 v -7.65 h 1.27 v 8.3 a 0.666975,0.680315 0 0 1 -0.600278,0.714331 L 21.74,99.24 v 15.04 h 4.67 z"
   class="st3"
   id="path37"
   inkscape:connector-curvature="0"
   style="fill:#b4ec36;stroke:none;stroke-width:34;stroke-linecap:butt" />
				</g>
				<g
   id="shape2883-13"
   transform="translate(21.9101,-37.7575)">
					<title
   id="title40">Sheet.2883</title>
					<path
   d="m 0,118.15 a 0.867088,0.88443 -180 0 0 0.867068,0.88441 L 19.61,119.04 a 0.867088,0.88443 -180 0 0 0.867068,-0.88441 L 20.48,109.34 a 0.867088,0.88443 -180 0 0 -0.867068,-0.88441 L 0.87,108.46 a 0.867088,0.88443 -180 0 0 -0.867068,0.88441 z"
   class="st4"
   id="path42"
   inkscape:connector-curvature="0"
   style="fill:#365615;stroke:none;stroke-width:34;stroke-linecap:butt" />
				</g>
				<g
   id="shape2884-15"
   transform="rotate(90,21.7171,121.4969)">
					<title
   id="title45">Sheet.2884</title>
					<path
   d="m 0,118.15 a 0.867088,0.88443 -180 0 0 0.867068,0.88441 L 15.47,119.04 a 0.867088,0.88443 -180 0 0 0.867068,-0.88441 L 16.34,116.22 a 0.867088,0.88443 -180 0 0 -0.867068,-0.88441 L 0.87,115.33 a 0.867088,0.88443 -180 0 0 -0.867068,0.88441 z"
   class="st4"
   id="path47"
   inkscape:connector-curvature="0"
   style="fill:#365615;stroke:none;stroke-width:34;stroke-linecap:butt" />
				</g>
				<g
   id="shape2885-17"
   transform="rotate(90,18.5816,118.4294)">
					<title
   id="title50">Sheet.2885</title>
					<path
   d="m 0,118.15 a 0.867088,0.88443 -180 0 0 0.867068,0.88441 L 15.47,119.04 a 0.867088,0.88443 -180 0 0 0.867068,-0.88441 L 16.34,116.22 a 0.867088,0.88443 -180 0 0 -0.867068,-0.88441 L 0.87,115.33 a 0.867088,0.88443 -180 0 0 -0.867068,0.88441 z"
   class="st4"
   id="path52"
   inkscape:connector-curvature="0"
   style="fill:#365615;stroke:none;stroke-width:34;stroke-linecap:butt" />
				</g>
				<g
   id="shape2886-19"
   transform="rotate(90,28.5531,128.4009)">
					<title
   id="title55">Sheet.2886</title>
					<path
   d="m 0,118.15 a 0.867088,0.88443 -180 0 0 0.867068,0.88441 L 15.47,119.04 a 0.867088,0.88443 -180 0 0 0.867068,-0.88441 L 16.34,116.22 a 0.867088,0.88443 -180 0 0 -0.867068,-0.88441 L 0.87,115.33 a 0.867088,0.88443 -180 0 0 -0.867068,0.88441 z"
   class="st5"
   id="path57"
   inkscape:connector-curvature="0"
   style="fill:#f2f2f2;stroke:none;stroke-width:34;stroke-linecap:butt" />
				</g>
				<g
   id="shape2887-21"
   transform="translate(21.9101,-24.8995)">
					<title
   id="title60">Sheet.2887</title>
					<ellipse
   cx="3.4682701"
   cy="115.23"
   rx="3.4682701"
   ry="3.8097601"
   class="st5"
   id="ellipse62"
   style="fill:#f2f2f2;stroke:none;stroke-width:34;stroke-linecap:butt" />
				</g>
				<g
   id="shape2888-23"
   transform="translate(0,-14.4567)">
					<title
   id="title65">Sheet.2888</title>
					<path
   d="M 5.37,119.04 H 1.13 A 1.13386,1.15654 0 0 1 0,118.02 V 98.09 a 1.13386,1.15654 0 0 1 1.13,-1.16 h 4.24 z"
   class="st6"
   id="path67"
   inkscape:connector-curvature="0"
   style="fill:#3b3b3b;stroke:none;stroke-width:34;stroke-linecap:butt" />
				</g>
			</g>
		</g>
	</g>
</svg>

<?xml version="1.0" encoding="UTF-8" standalone="no"?>
<!DOCTYPE svg PUBLIC "-//W3C//DTD SVG 1.1//EN" "http://www.w3.org/Graphics/SVG/1.1/DTD/svg11.dtd">
<!-- Generated by Microsoft Visio, SVG Export Network Interface.svg Page-1 -->
<svg xmlns="http://www.w3.org/2000/svg" xmlns:xlink="http://www.w3.org/1999/xlink" xmlns:ev="http://www.w3.org/2001/xml-events"
		width="1.73185in" height="1.65332in" viewBox="0 0 124.693 119.039" xml:space="preserve" color-interpolation-filters="sRGB"
		class="st7">
	<style type="text/css">
	<![CDATA[
		.st1 {fill:#ffca00;stroke:none;stroke-linecap:butt;stroke-width:34}
		.st2 {fill:url(#grad0-8);stroke:none;stroke-linecap:butt;stroke-width:34}
		.st3 {fill:#b4ec36;stroke:none;stroke-linecap:butt;stroke-width:34}
		.st4 {fill:#365615;stroke:none;stroke-linecap:butt;stroke-width:34}
		.st5 {fill:#f2f2f2;stroke:none;stroke-linecap:butt;stroke-width:34}
		.st6 {fill:#3b3b3b;stroke:none;stroke-linecap:butt;stroke-width:34}
		.st7 {fill:none;fill-rule:evenodd;font-size:12px;overflow:visible;stroke-linecap:square;stroke-miterlimit:3}
	]]>
	</style>

	<defs id="Patterns_And_Gradients">
		<linearGradient id="grad0-8" x1="0" y1="0" x2="1" y2="0" gradientTransform="rotate(-90 0.5 0.5)">
			<stop offset="0" stop-color="#5e9641" stop-opacity="1"/>
			<stop offset="0.34" stop-color="#6baa42" stop-opacity="1"/>
			<stop offset="0.67" stop-color="#73b743" stop-opacity="1"/>
			<stop offset="1" stop-color="#76bb43" stop-opacity="1"/>
		</linearGradient>
	</defs>
	<g>
		<title>Page-1</title>
		<g id="group2851-1" transform="translate(34,-34.0157)">
			<title>Network Interface</title>
			<g id="group2852-2">
				<title>Sheet.2852</title>
				<g id="shape2853-3" transform="translate(51.3238,-3.26551)">
					<title>Sheet.2853</title>
					<path d="M0 76.08 L4.24 76.08 A1.13386 1.15654 0 0 1 5.37 77.23 L5.37 89.14 A1.13386 1.15654 0 0 1 4.24 90.3
								 L0 90.3 L0 76.08 ZM0 96.79 L4.24 96.79 A1.13386 1.15654 0 0 1 5.37 97.95 L5.37 117.88 A1.13386 1.15654
								 0 0 1 4.24 119.04 L0 119.04 L0 96.79 Z" class="st1"/>
				</g>
				<g id="shape2854-5" transform="translate(5.43585,0)">
					<title>Sheet.2854</title>
					<path d="M0 116.69 A2.30112 2.34714 -180 0 0 2.3 119.04 L43.59 119.04 A2.30112 2.34714 -180 0 0 45.89 116.69
								 L45.89 70.36 A2.30112 2.34714 -180 0 0 43.59 68.02 L2.3 68.02 A2.30112 2.34714 -180 0 0 -0 70.36
								 L0 116.69 Z" class="st2"/>
				</g>
				<g id="shape2855-9" transform="translate(15.0069,-12.2457)">
					<title>Sheet.2855</title>
					<path d="M3 119.04 L0.63 119.04 a0.666975 0.680315 0 0 1 -0.633627 -0.714331 L0 89.92 a0.633627 0.646299 0 0
								 1 0.633627 -0.680315 L7.07 89.24 a0.633627 0.646299 0 0 1 0.633627 0.680315 a0.666975 0.680315 0
								 0 1 -0.633627 0.714331 L1.27 90.64 L1.27 117.61 L3 117.61 a0.666975 0.680315 0 0 1 0.633627 0.714331
								 a0.700324 0.714331 0 0 1 -0.633627 0.714331 Z" class="st3"/>
				</g>
				<g id="shape2856-11" transform="translate(11.9389,-8.77606)">
					<title>Sheet.2856</title>
					<path d="M6.4 119.04 L1.07 119.04 a0.666975 0.680315 0 0 1 -0.633627 -0.714331 L0 83.19 a0.666975 0.680315 0
								 0 1 0.200093 -0.510236 a0.53358 0.544252 0 0 1 0.433534 -0.204094 L10.14 82.47 L10.14 83.87 L1.3
								 83.87 L1.7 117.61 L6.4 117.61 L6.4 119.04 ZM26.41 115.91 L21.11 115.91 a0.633627 0.646299 0 0 1
								 -0.466883 -0.23811 a0.600278 0.612283 0 0 1 -0.200093 -0.47622 L20.44 98.56 a0.633627 0.646299 0
								 0 1 0.633627 -0.680315 L24.11 97.88 L24.11 90.23 L25.38 90.23 L25.38 98.53 a0.666975 0.680315 0
								 0 1 -0.600278 0.714331 L21.74 99.24 L21.74 114.28 L26.41 114.28 L26.41 115.91 Z" class="st3"/>
				</g>
				<g id="shape2857-13" transform="translate(21.9101,-37.7575)">
					<title>Sheet.2857</title>
					<path d="M-0 118.15 a0.867088 0.88443 -180 0 0 0.867068 0.884409 L19.61 119.04 a0.867088 0.88443 -180 0 0 0.867068
								 -0.884409 L20.48 109.34 a0.867088 0.88443 -180 0 0 -0.867068 -0.884409 L0.87 108.46 a0.867088 0.88443
								 -180 0 0 -0.867068 0.884409 L0 118.15 Z" class="st4"/>
				</g>
				<g id="shape2858-15" transform="translate(143.214,99.7798) rotate(90)">
					<title>Sheet.2858</title>
					<path d="M0 118.15 a0.867088 0.88443 -180 0 0 0.867068 0.884409 L15.47 119.04 a0.867088 0.88443 -180 0 0 0.867068
								 -0.884409 L16.34 116.22 a0.867088 0.88443 -180 0 0 -0.867068 -0.884409 L0.87 115.33 a0.867088 0.88443
								 -180 0 0 -0.867068 0.884409 L0 118.15 Z" class="st4"/>
				</g>
				<g id="shape2859-17" transform="translate(137.011,99.8478) rotate(90)">
					<title>Sheet.2859</title>
					<path d="M0 118.15 a0.867088 0.88443 -180 0 0 0.867068 0.884409 L15.47 119.04 a0.867088 0.88443 -180 0 0 0.867068
								 -0.884409 L16.34 116.22 a0.867088 0.88443 -180 0 0 -0.867068 -0.884409 L0.87 115.33 a0.867088 0.88443
								 -180 0 0 -0.867068 0.884409 L0 118.15 Z" class="st4"/>
				</g>
				<g id="shape2860-19" transform="translate(156.954,99.8478) rotate(90)">
					<title>Sheet.2860</title>
					<path d="M0 118.15 a0.867088 0.88443 -180 0 0 0.867068 0.884409 L15.47 119.04 a0.867088 0.88443 -180 0 0 0.867068
								 -0.884409 L16.34 116.22 a0.867088 0.88443 -180 0 0 -0.867068 -0.884409 L0.87 115.33 a0.867088 0.88443
								 -180 0 0 -0.867068 0.884409 L0 118.15 Z" class="st5"/>
				</g>
				<g id="shape2861-21" transform="translate(21.9101,-24.8995)">
					<title>Sheet.2861</title>
					<ellipse cx="3.46827" cy="115.23" rx="3.46827" ry="3.80976" class="st5"/>
				</g>
				<g id="shape2862-23" transform="translate(2.79776E-14,-14.4567)">
					<title>Sheet.2862</title>
					<path d="M5.37 119.04 L1.13 119.04 A1.13386 1.15654 0 0 1 -0 118.02 L0 98.09 A1.13386 1.15654 0 0 1 1.13 96.93
								 L5.37 96.93 L5.37 119.04 Z" class="st6"/>
				</g>
			</g>
		</g>
	</g>
</svg>
